components/2.0/icon/icons/icon-text-padding-22px.svg

<svg width="22" height="22" xmlns="http://www.w3.org/2000/svg"><g fill="#77818C" fill-rule="evenodd"><path d="M6 7h10v1H6V7zm0 4h10v1H6v-1zm1-2h8v1H7V9zm1 4h6v1H8v-1z"/><path d="M2 20V2h18v18H2zM5 5h12v12H5V5z" opacity=".5"/></g></svg>

<?xml version="1.0" encoding="UTF-8" standalone="no"?>
<svg width="22px" height="22px" viewBox="0 0 22 22" version="1.1" xmlns="http://www.w3.org/2000/svg" xmlns:xlink="http://www.w3.org/1999/xlink" xmlns:sketch="http://www.bohemiancoding.com/sketch/ns">
    <!-- Generator: Sketch 3.4.4 (17249) - http://www.bohemiancoding.com/sketch -->
    <title>icon-text-padding-22px</title>
    <desc>Created with Sketch.</desc>
    <defs></defs>
    <g id="22px" stroke="none" stroke-width="1" fill="none" fill-rule="evenodd" sketch:type="MSPage">
        <g id="icon-text-padding-22px" sketch:type="MSArtboardGroup" fill="#77818C">
            <path d="M6,7 L16,7 L16,8 L6,8 L6,7 L6,7 Z M6,11 L16,11 L16,12 L6,12 L6,11 L6,11 Z M7,9 L15,9 L15,10 L7,10 L7,9 L7,9 Z M8,13 L14,13 L14,14 L8,14 L8,13 L8,13 Z" id="Primary" sketch:type="MSShapeGroup"></path>
            <path d="M2,20 L2,2 L20,2 L20,20 L2,20 L2,20 Z M5,5 L17,5 L17,17 L5,17 L5,5 L5,5 Z" id="Primary" opacity="0.5" sketch:type="MSShapeGroup"></path>
        </g>
    </g>
</svg>
